src/images/bodybuildingIcon.svg

<svg fill="none" height="64" viewBox="0 0 64 64" width="64" xmlns="http://www.w3.org/2000/svg"><rect fill="#fff" height="64" rx="6" width="64"/><path d="m45.712 36.576 2.288-2.288-2.288-2.288-5.712 5.712-13.712-13.712 5.712-5.712-2.288-2.288-2.288 2.288-2.288-2.288-3.424 3.424-2.288-2.288-2.288 2.288 2.288 2.288-3.424 3.424 2.288 2.288-2.288 2.288 2.288 2.288 5.712-5.712 13.712 13.712-5.712 5.712 2.288 2.288 2.288-2.288 2.288 2.288 3.424-3.424 2.288 2.288 2.288-2.288-2.288-2.288 3.424-3.424z" fill="#ff0101"/></svg>

<svg width="64" height="64" viewBox="0 0 64 64" fill="none" xmlns="http://www.w3.org/2000/svg">
<rect width="64" height="64" rx="6" fill="white"/>
<path d="M45.712 36.576L48 34.288L45.712 32L40 37.712L26.288 24L32 18.288L29.712 16L27.424 18.288L25.136 16L21.712 19.424L19.424 17.136L17.136 19.424L19.424 21.712L16 25.136L18.288 27.424L16 29.712L18.288 32L24 26.288L37.712 40L32 45.712L34.288 48L36.576 45.712L38.864 48L42.288 44.576L44.576 46.864L46.864 44.576L44.576 42.288L48 38.864L45.712 36.576Z" fill="#FF0101"/>
</svg>
